public/assets/images/About/группа.svg

<svg width="80" height="72" viewBox="0 0 80 72" fill="none" xmlns="http://www.w3.org/2000/svg">
<g filter="url(#filter0_f)">
<path d="M62.7613 38.165H57.8118C58.3163 39.5463 58.5919 41.0369 58.5919 42.5905V61.2968C58.5919 61.9446 58.4791 62.5663 58.274 63.1446H66.4566C69.5133 63.1446 71.9999 60.6578 71.9999 57.6013V47.4037C72 42.3095 67.8555 38.165 62.7613 38.165Z" fill="#D6A850"/>
<path d="M21.4082 42.5907C21.4082 41.0369 21.6838 39.5464 22.1883 38.1652H17.2388C12.1445 38.1652 8 42.3097 8 47.4039V57.6016C8 60.6581 10.4866 63.1448 13.5433 63.1448H21.726C21.5209 62.5663 21.4082 61.9447 21.4082 61.297V42.5907Z" fill="#D6A850"/>
<path d="M45.6575 33.3519H34.3423C29.248 33.3519 25.1035 37.4964 25.1035 42.5907V61.297C25.1035 62.3174 25.9308 63.1447 26.9513 63.1447H53.0486C54.0691 63.1447 54.8963 62.3175 54.8963 61.297V42.5907C54.8963 37.4964 50.7518 33.3519 45.6575 33.3519Z" fill="#D6A850"/>
<path d="M40.0003 8.85498C33.8738 8.85498 28.8895 13.8392 28.8895 19.9659C28.8895 24.1215 31.1832 27.7509 34.5704 29.6564C36.177 30.5602 38.0293 31.0767 40.0003 31.0767C41.9713 31.0767 43.8235 30.5602 45.4302 29.6564C48.8176 27.7509 51.1111 24.1214 51.1111 19.9659C51.1111 13.8394 46.1268 8.85498 40.0003 8.85498Z" fill="#D6A850"/>
<path d="M20.4899 19.2112C15.908 19.2112 12.1805 22.9387 12.1805 27.5206C12.1805 32.1025 15.908 35.83 20.4899 35.83C21.6522 35.83 22.7589 35.5892 23.7643 35.1565C25.5026 34.4081 26.9358 33.0833 27.8227 31.424C28.4452 30.2593 28.7993 28.9307 28.7993 27.5206C28.7993 22.9388 25.0718 19.2112 20.4899 19.2112Z" fill="#D6A850"/>
<path d="M59.5104 19.2112C54.9286 19.2112 51.201 22.9387 51.201 27.5206C51.201 28.9308 51.5552 30.2595 52.1777 31.424C53.0646 33.0835 54.4978 34.4082 56.2361 35.1565C57.2414 35.5892 58.3482 35.83 59.5104 35.83C64.0923 35.83 67.8198 32.1025 67.8198 27.5206C67.8198 22.9387 64.0923 19.2112 59.5104 19.2112Z" fill="#D6A850"/>
</g>
<path d="M62.7613 38.165H57.8118C58.3163 39.5463 58.5919 41.0369 58.5919 42.5905V61.2968C58.5919 61.9446 58.4791 62.5663 58.274 63.1446H66.4566C69.5133 63.1446 71.9999 60.6578 71.9999 57.6013V47.4037C72 42.3095 67.8555 38.165 62.7613 38.165Z" fill="#E4A738"/>
<path d="M21.4082 42.5907C21.4082 41.0369 21.6838 39.5464 22.1883 38.1652H17.2388C12.1445 38.1652 8 42.3097 8 47.4039V57.6016C8 60.6581 10.4866 63.1448 13.5433 63.1448H21.726C21.5209 62.5663 21.4082 61.9447 21.4082 61.297V42.5907Z" fill="#E4A738"/>
<path d="M45.6575 33.3519H34.3423C29.248 33.3519 25.1035 37.4964 25.1035 42.5907V61.297C25.1035 62.3174 25.9308 63.1447 26.9513 63.1447H53.0486C54.0691 63.1447 54.8963 62.3175 54.8963 61.297V42.5907C54.8963 37.4964 50.7518 33.3519 45.6575 33.3519Z" fill="#EFBE44"/>
<path d="M40.0003 8.85498C33.8738 8.85498 28.8895 13.8392 28.8895 19.9659C28.8895 24.1215 31.1832 27.7509 34.5704 29.6564C36.177 30.5602 38.0293 31.0767 40.0003 31.0767C41.9713 31.0767 43.8235 30.5602 45.4302 29.6564C48.8176 27.7509 51.1111 24.1214 51.1111 19.9659C51.1111 13.8394 46.1268 8.85498 40.0003 8.85498Z" fill="#EFBE44"/>
<path d="M20.4899 19.2112C15.908 19.2112 12.1805 22.9387 12.1805 27.5206C12.1805 32.1025 15.908 35.83 20.4899 35.83C21.6522 35.83 22.7589 35.5892 23.7643 35.1565C25.5026 34.4081 26.9358 33.0833 27.8227 31.424C28.4452 30.2593 28.7993 28.9307 28.7993 27.5206C28.7993 22.9388 25.0718 19.2112 20.4899 19.2112Z" fill="#E4A738"/>
<path d="M59.5104 19.2112C54.9286 19.2112 51.201 22.9387 51.201 27.5206C51.201 28.9308 51.5552 30.2595 52.1777 31.424C53.0646 33.0835 54.4978 34.4082 56.2361 35.1565C57.2414 35.5892 58.3482 35.83 59.5104 35.83C64.0923 35.83 67.8198 32.1025 67.8198 27.5206C67.8198 22.9387 64.0923 19.2112 59.5104 19.2112Z" fill="#E4A738"/>
<defs>
<filter id="filter0_f" x="0" y="-4" width="80" height="80" filterUnits="userSpaceOnUse" color-interpolation-filters="sRGB">
<feFlood flood-opacity="0" result="BackgroundImageFix"/>
<feBlend mode="normal" in="SourceGraphic" in2="BackgroundImageFix" result="shape"/>
<feGaussianBlur stdDeviation="4" result="effect1_foregroundBlur"/>
</filter>
</defs>
</svg>

<svg width="80" height="72" fill="none" xmlns="http://www.w3.org/2000/svg"><g filter="url(#a)" fill="#D6A850"><path d="M62.761 38.165h-4.95c.505 1.381.78 2.872.78 4.425v18.707c0 .648-.112 1.27-.317 1.848h8.183A5.55 5.55 0 0 0 72 57.6V47.404c0-5.095-4.144-9.239-9.239-9.239ZM21.408 42.59c0-1.553.276-3.044.78-4.425h-4.95C12.146 38.165 8 42.31 8 47.404v10.198a5.55 5.55 0 0 0 5.543 5.543h8.183a5.518 5.518 0 0 1-.318-1.848V42.591ZM45.657 33.352H34.343c-5.094 0-9.238 4.144-9.238 9.239v18.706c0 1.02.827 1.848 1.847 1.848H53.05c1.02 0 1.847-.828 1.847-1.848V42.591c0-5.095-4.144-9.24-9.239-9.24ZM40 8.855c-6.126 0-11.11 4.984-11.11 11.11 0 4.157 2.293 7.786 5.68 9.691a11.042 11.042 0 0 0 5.43 1.42c1.971 0 3.824-.516 5.43-1.42 3.388-1.905 5.681-5.535 5.681-9.69 0-6.127-4.984-11.111-11.11-11.111ZM20.49 19.211c-4.582 0-8.31 3.728-8.31 8.31 0 4.581 3.728 8.309 8.31 8.309 1.162 0 2.269-.24 3.274-.673a8.362 8.362 0 0 0 4.059-3.733 8.257 8.257 0 0 0 .976-3.903c0-4.582-3.727-8.31-8.31-8.31ZM59.51 19.211c-4.581 0-8.309 3.728-8.309 8.31 0 1.41.354 2.738.977 3.903a8.36 8.36 0 0 0 4.058 3.733 8.262 8.262 0 0 0 3.274.673c4.582 0 8.31-3.727 8.31-8.31 0-4.581-3.728-8.309-8.31-8.309Z"/></g><path d="M62.761 38.165h-4.95c.505 1.381.78 2.872.78 4.425v18.707c0 .648-.112 1.27-.317 1.848h8.183A5.55 5.55 0 0 0 72 57.6V47.404c0-5.095-4.144-9.239-9.239-9.239ZM21.408 42.59c0-1.553.276-3.044.78-4.425h-4.95C12.146 38.165 8 42.31 8 47.404v10.198a5.55 5.55 0 0 0 5.543 5.543h8.183a5.518 5.518 0 0 1-.318-1.848V42.591Z" fill="#E4A738"/><path d="M45.657 33.352H34.343c-5.094 0-9.238 4.144-9.238 9.239v18.706c0 1.02.827 1.848 1.847 1.848H53.05c1.02 0 1.847-.828 1.847-1.848V42.591c0-5.095-4.144-9.24-9.239-9.24ZM40 8.855c-6.126 0-11.11 4.984-11.11 11.11 0 4.157 2.293 7.786 5.68 9.691a11.042 11.042 0 0 0 5.43 1.42c1.971 0 3.824-.516 5.43-1.42 3.388-1.905 5.681-5.535 5.681-9.69 0-6.127-4.984-11.111-11.11-11.111Z" fill="#EFBE44"/><path d="M20.49 19.211c-4.582 0-8.31 3.728-8.31 8.31 0 4.581 3.728 8.309 8.31 8.309 1.162 0 2.269-.24 3.274-.673a8.362 8.362 0 0 0 4.059-3.733 8.257 8.257 0 0 0 .976-3.903c0-4.582-3.727-8.31-8.31-8.31ZM59.51 19.211c-4.581 0-8.309 3.728-8.309 8.31 0 1.41.354 2.738.977 3.903a8.36 8.36 0 0 0 4.058 3.733 8.262 8.262 0 0 0 3.274.673c4.582 0 8.31-3.727 8.31-8.31 0-4.581-3.728-8.309-8.31-8.309Z" fill="#E4A738"/><defs><filter id="a" x="0" y="-4" width="80" height="80" filterUnits="userSpaceOnUse" color-interpolation-filters="sRGB"><feFlood flood-opacity="0" result="BackgroundImageFix"/><feBlend in="SourceGraphic" in2="BackgroundImageFix" result="shape"/><feGaussianBlur stdDeviation="4" result="effect1_foregroundBlur"/></filter></defs></svg>
